X: 54
T: Sonata in A major, L.345, K.113
C: Domenico Scarlatti
%%abc-version 2.0
%%abcx-abcm2ps-target-version 5.9.1 (29 Sep 2008)
%%abc-creator hum2abc beta
%%abcx-conversion-date 2021/06/28 10:15:41
%%abc-copyright 2021 Craig Stuart Sapp
%%abc-edited-by Craig Stuart Sapp
%%abc-edited-by Craig Stuart Sapp
%%abcx-initial-encoding-date 2004/11/02
%%humdrum-veritas 3394245030
%%humdrum-veritas-data 3562551291
%%linebreak <none>
%%barnumbers 0
L: 1/8
M: 2/2
N: Derived from L345K113.krn
Q: "Allegrissimo ([half]=120)" 1/2=120
%%staves {1 2}
V: 1 clef=treble
V: 2 clef=bass
K: A
[V:1] z2cA.[c2e2].[d2f2] | 
[V:2] z8 | 
[V:1] .[c2e2].C2.D2.E2 | 
[V:2] z2.[C,,2C,2].[D,,2D,2].[E,,2E,2] | 
[V:1] .A,2cA.[c2a2].[d2b2] | 
[V:2] .[A,,,2A,,2]z2z4 | 
[V:1] [c2a2].C2.D2.E2 | 
[V:2] z2.[C,,2C,2].[D,,2D,2].[E,,2E,2] | 
[V:1] .A,2cA ecA[df] | 
[V:2] .[A,,,2A,,2]z2z4 | 
[V:1] [c2e2].C2.D2.E2 | 
[V:2] z2.[C,,2C,2].[D,,2D,2].[E,,2E,2] | 
[V:1] .A,2cA acdb | 
[V:2] .[A,,,2A,,2]z2z4 | 
[V:1] [c2a2].C2.D2.E2 | 
[V:2] z2.[C,,2C,2].[D,,2D,2].[E,,2E,2] | 
[V:1] .A,ECA, FDGE | 
[V:2] .[A,,,2A,,2]z2z4 | 
[V:1] AECA, FDGE | 
[V:2] [A,,,2A,,2]z2z4 | 
[V:1] x4A2B2 & AECA, FDGE | 
[V:2] .[A,,,2A,,2]z2z4 | 
[V:1] c2z2A2B2 & AECA, FDGE | 
[V:2] [A,,,2A,,2]z2z4 | 
[V:1] cecAx4 & A2x2fdge | 
[V:2] [A,,,2A,,2]z2z4 | 
[V:1] aecA fdge | 
[V:2] [A,,,2A,,2]z2z4[K:clef=treble] | 
[V:1] a2e4d2 | 
[V:2] z ECA, FDGE | 
[V:1] z2a4b2 & c4d4 | 
[V:2] AECA, FDGE | 
[V:1] .acBA .aBAG | 
[V:2] .A2C2D2E2 | 
[V:1] .acBA .aBAG | 
[V:2] .A2C2D2E2[K:clef=bass] | 
[V:1] .A2[c4e4][B2d2] | 
[V:2] z E,C,A,, F,D,G,E, | 
[V:1] [A2c2]B4A2 | 
[V:2] A,E,B,E, CE,^DE, | 
[V:1] GBGE cA^dB | 
[V:2] .E2E,2A,2F,2 | 
[V:1] eBGE cA^dB | 
[V:2] G,2E,2A,2F,2 | 
[V:1] .e2[B4g4][A2f2] | 
[V:2] G,B,G,E, CA,^DB, | 
[V:1] .[G2e2][B4g4][A2f2] | 
[V:2] EB,G,E, CA,^DB, | 
[V:1] .eGFE .eFE^D | 
[V:2] .E2G,2A,2B,2 | 
[V:1] .eGFE .eFE^D | 
[V:2] .E2G,2A,2B,2 | 
[V:1] Ee=F=d EcDB | 
[V:2] .E,2z2z4 | 
[V:1] E=cDB =CAB,G | 
[V:2] z8 | 
[V:1] .A2[^G2B2][A2=c2][B2d2] | 
[V:2] z=F,2D E,=CD,B, | 
[V:1] [=c2e2][^G2=f2][A2e2][B2d2] | 
[V:2] =C,A,D,B, C,A,B,,G, | 
[V:1] x2.a2x2.=g2 & cAEc B=GEB | 
[V:2] A,,2x2.=G,2x2 | 
[V:1] x2.=f2x2.e2 & A=FDA =GE=CG | 
[V:2] .=F,2x2.E,2x2 | 
[V:1] x2.d2x2.=c2 & =FDB,F E=CA,E | 
[V:2] .D,2x2.=C,2x2 | 
[V:1] x2.B2x2.A2 & DB,^G,D =CEA,C | 
[V:2] .B,,2x2.A,,2x2 | 
[V:1] B,E,G,B, EB,GE | 
[V:2] .E,,2z2z4 | 
[V:1] .e2B4A2 | 
[V:2] z B,G,E, CA,^DB, | 
[V:1] GEGB eBge | 
[V:2] .E zz2z4[K:clef=treble] | 
[V:1] .b2b4a2- | 
[V:2] z BGE cA^dB | 
[V:1] agfe gfe^d | 
[V:2] .e2G2A2B2 | 
[V:1] egfe ^dcBA | 
[V:2] .Ee^dc BAGF | 
[V:1] GABA GFE^D | 
[V:2] .E2[K:clef=bass]A,2B,2B,,2 | 
[V:1] x2b2=c'2x2 & .E=GFG BAGF | 
[V:2] E,2x2x2^D,2 | 
[V:1] x2b2=c'2x2 & =GGFG BAGF | 
[V:2] E,2x2x2^D,2 | 
[V:1] x2=c'2b2x2 & =GFGA B=FA^G | 
[V:2] E,2x2x2=D,2 | 
[V:1] x2=c'2b2x2 & AEA=c B=FED | 
[V:2] =C,2x2x2D,2 | 
[V:1] x2a2=g2x2 & A^DEA =GE^F^D | 
[V:2] =C,2x2x2B,,2 | 
[V:1] x2a2=g2x2 & [E=G]B,[FA]=C [EG]B,[^DF]B, | 
[V:2] E,2x2x2B,,2 | 
[V:1] x2a2=g2x2 & [E=G]B,[FA]=C [EG]B,[^DF]B, | 
[V:2] E,2x2x2B,,2 | 
[V:1] x2.b2x2.=c'2 & [E=G]BGE =cAEc | 
[V:2] .E,2x2.A,2x2 | 
[V:1] x2.b2x2.a2 & B=GEB AF^DA | 
[V:2] .=G,2x2.F,2x2 | 
[V:1] x2.=g2x2.f2 & =GE=CA BF=DF | 
[V:2] .E,2x2.=D,2x2 | 
[V:1] x2.e2x2.^d2 & BE=CA BF^DB, | 
[V:2] .=C,2x2.B,,2x2 | 
[V:1] BA=GF GEAF | 
[V:2] z2B,4A,2 & z2^D,2E,2A,2 | 
[V:1] x2x2x2.b2 & =GEF^D EB=GE | 
[V:2] B,2.B,,2.=G,2x2 | 
[V:1] x2=c'2x2.b2 & =cAEc B=GEB | 
[V:2] .A,2x2.=G,2x2 | 
[V:1] x2.a2x2.=g2 & AF^DA =GE=CG | 
[V:2] .F,2x2.E,2x2 | 
[V:1] x2.f2x2.e2 & F=DB,F E=CA,E | 
[V:2] .=D,2x2.=C,2x2 | 
[V:1] ^DB,DF BA=GF | 
[V:2] .B,,2B,,4^D,2 | 
[V:1] =GEAF GEF^D | 
[V:2] E,2A,2B,2.B,,2 | 
[V:1] x2.b2x2x2 & EB,^GE F^DAF | 
[V:2] .E,2x2!accent!B,,4 | 
[V:1] x2.b2x2x2 & GEBE F^DAF | 
[V:2] .E,2x2!accent!B,,,4 | 
[V:1] x2.b2x2x2 & GEBE F^DAF | 
[V:2] .E,,2x2!accent!B,,,4 | 
[V:1] GABA GFE^D | 
[V:2] .E,,2A,2B,2B,,2 | 
[V:1] x2.b2x2x2 & EB,GE F^DAF | 
[V:2] .E,2z2!accent!B,,4 | 
[V:1] x2.b2x2x2 & GEBE F^DAF | 
[V:2] .E,2z2!accent!B,,,4 | 
[V:1] x2.b2x2x2 & GEBE F^DAF | 
[V:2] .E,,2z2!accent!B,,,4 | 
[V:1] GABA GFE^D | 
[V:2] .E,,2A,2B,2B,,2 | 
[V:1] E[K:clef=bass]B,CA, G,EF,^D | 
[V:2] .E,2A,,2B,,2B,,,2 | 
[V:1] EB,G,E,!mordent!E,4[K:clef=treble] :|]|:  
[V:2] !accent!E,,4z4 :|]|:  
[V:1] z EFE GEAE | 
[V:2] E,,2z2z4 | 
[V:1] BEGE AEBE | 
[V:2] E,2.[E,2D2].[E,2C2].[E,2B,2] | 
[V:1] cEGE AEBE | 
[V:2] .[E,2A,2].[E,2D2].[E,2C2].[E,2B,2] | 
[V:1] cEGE AEBE | 
[V:2] .[E,2A,2][E,2D2].[E,2C2].[E,2B,2] | 
[V:1] cABA cAdA | 
[V:2] [A,,2A,2]z2z4 | 
[V:1] eAcA dAeA | 
[V:2] .A,2[A,2=G2].[A,2F2].[A,2E2] | 
[V:1] fAcA dAeA | 
[V:2] .[A,2D2][A,2=G2].[A,2F2].[A,2E2] | 
[V:1] fAcA dAeA | 
[V:2] .[A,2D2][A,2=G2].[A,2F2].[A,2E2] | 
[V:1] x2.a2x2x2 & fAdA eA=gA | 
[V:2] .D2x2!accent!A,,4 | 
[V:1] x2.a2x2x2 & fAdA eA=gA | 
[V:2] .D,2x2!accent!A,,4 | 
[V:1] x2.a2x2x2 & fAeA ^dBaB | 
[V:2] .D,2x2!accent!B,,4 | 
[V:1] x2.b2x2x2 & ^gBeB fBaB | 
[V:2] .E,2x2!accent!B,,4 | 
[V:1] x2.b2x2x2 & gBeB fBaB | 
[V:2] .E,2x2!accent!B,,4 | 
[V:1] ^g=fed =cBAG | 
[V:2] .E,2z2z2z E | 
[V:1] Aaga bd=cB | 
[V:2] =F2D2^G2E2 | 
[V:1] =c=fed cBAG | 
[V:2] .A2D4E2 | 
[V:1] Aaga bd=cB | 
[V:2] =F2D2G2E2 | 
[V:1] =caB=g A=f=Ge | 
[V:2] .A2E2=F2=C2 | 
[V:1] =FdE=c DB=CA | 
[V:2] D2A,2=F,2A,2 | 
[V:1] BA^GF.E2!accent!e2- | 
[V:2] .E,2!accent!E2>D2=CB, | 
[V:1] ed=cB.A2!accent!a2- | 
[V:2] .A,2[K:clef=treble]!accent!A2>=G2=FE | 
[V:1] a=g=fe.d2!accent!b2- | 
[V:2] .D2!accent!d2>=c2BA | 
[V:1] ba^g^f2<e2g | 
[V:2] .E2!accent!e2>d2=cB | 
[V:1] ab=c'd' c'bag | 
[V:2] .A2D2E2[K:clef=bass]E,2 | 
[V:1] a=fed =cBA^G | 
[V:2] .A,,2A,4E,2 | 
[V:1] AB=cd cBAG | 
[V:2] =F,2D,2E,2E,,2 | 
[V:1] x2.=c'2x2.b2 & AE=cA B=GEB | 
[V:2] .A,,2x2.=G,2x2 | 
[V:1] x2.a2x2.=g2 & A=FDA =GE=CG | 
[V:2] .=F,2x2.E,2x2 | 
[V:1] x2.=f2x2.e2 & =FDB,F E=CA,E | 
[V:2] .D,2x2.=C,2x2 | 
[V:1] x2.d2x2.=c2 & DB,=G,D =CA,=F,C | 
[V:2] .B,,2x2.A,,2x2 | 
[V:1] x2.B2x2.A2 & EB,=G,B, EA,=F,D | 
[V:2] .=G,,2x2.=F,,2x2 | 
[V:1] EB,^G,B,.E2.G2 | 
[V:2] .E,,2!accent!E,2>=D,2=C,B,, | 
[V:1] AB=cd cBA^G | 
[V:2] =C,2D,2E,2E,,2 | 
[V:1] x2.=c'2x2.b2 & AE=cA B=GEB | 
[V:2] .A,,2x2.=G,2x2 | 
[V:1] x2.a2x2.=g2 & A=FDA =GE=CG | 
[V:2] =F,2x2.E,2x2 | 
[V:1] x2.=f2x2.e2 & =FDB,F E=CA,E | 
[V:2] .D,2x2.=C,2x2 | 
[V:1] x2.d2x2.=c2 & DB,=G,D =CA,=F,C | 
[V:2] .B,,2x2.A,,2x2 | 
[V:1] x2.B2x2.A2 & EB,=G,B, EA,=F,D | 
[V:2] .=G,,2x2.=F,,2x2 | 
[V:1] EB,^G,B,.E2.G2 | 
[V:2] .E,,2!accent!E,2>=D,2=C,B,, | 
[V:1] AB=cd cBAG | 
[V:2] =C,2D,2E,2E,,2 | 
[V:1] x2.a2x2x2 & AE^cE BEdE | 
[V:2] .A,,2x2!accent!E,,4 | 
[V:1] x2.a2x2x2 & cEAE BEdE | 
[V:2] .A,,2x2!accent!E,,4 | 
[V:1] x2.a2x2x2 & cEAE BEdE | 
[V:2] .A,,2x2!accent!E,,4 | 
[V:1] cded cBAG | 
[V:2] .A,,2D,2E,2E,,2 | 
[V:1] x2.a2x2x2 & AEcE BEdE | 
[V:2] .A,,2x2!accent!E,,4 | 
[V:1] x2.a2x2x2 & cEAE BEdE | 
[V:2] .A,,2x2!accent!E,,4 | 
[V:1] x2.a2x2x2 & cEAE BEdE | 
[V:2] .A,,2x2!accent!E,,4 | 
[V:1] cded cBAG | 
[V:2] .A,,2D,2E,2E,,2 | 
[V:1] AEFD CAB,G | 
[V:2] .A,,2D,2E,2.E,,2 | 
[V:1] AECA, B,DEG | 
[V:2] A,,4z4 | 
[V:1] AECA, B,DEG | 
[V:2] A,,4z4 | 
[V:1] AECA, B,DEG | 
[V:2] A,,4z4 | 
[V:1] {/G2}!arpeggio![C8E8A8] :|]  
[V:2] !arpeggio![A,,8C,8E,8A,8] :|]  


